frontend/assets/chatmsg.svg

<svg height="512pt" viewBox="0 -45 512 511" width="512pt" xmlns="http://www.w3.org/2000/svg"><path d="m407 .5h-302c-57.898438 0-105 47.101562-105 105v162.171875c0 46.199219 30.332031 86.4375 74.285156 99.316406l50.710938 50.714844c2.816406 2.8125 6.628906 4.394531 10.609375 4.394531 3.976562 0 7.792969-1.582031 10.605469-4.394531l46.519531-46.523437h214.269531c57.898438 0 105-47.101563 105-105v-160.679688c0-57.898438-47.101562-105-105-105zm75 265.679688c0 41.355468-33.644531 75-75 75h-220.480469c-3.976562 0-7.792969 1.582031-10.605469 4.394531l-40.308593 40.308593-42.929688-42.929687c-1.925781-1.925781-4.339843-3.292969-6.984375-3.949219-32.789062-8.160156-55.691406-37.492187-55.691406-71.332031v-162.171875c0-41.355469 33.644531-75 75-75h302c41.355469 0 75 33.644531 75 75zm0 0"/><path d="m351.242188 144.328125h-190.484376c-8.285156 0-15 6.71875-15 15 0 8.285156 6.714844 15 15 15h190.484376c8.285156 0 15-6.714844 15-15 0-8.28125-6.714844-15-15-15zm0 0"/><path d="m351.242188 197.351562h-190.484376c-8.285156 0-15 6.714844-15 15 0 8.285157 6.714844 15 15 15h190.484376c8.285156 0 15-6.714843 15-15 0-8.285156-6.714844-15-15-15zm0 0"/></svg>

<svg height="512pt" viewBox="0 -45 512 511" width="512pt" xmlns="http://www.w3.org/2000/svg"><path d="M407 .5H105C47.102.5 0 47.602 0 105.5v162.172c0 46.2 30.332 86.437 74.285 99.316l50.711 50.715a15.012 15.012 0 0010.61 4.395c3.976 0 7.792-1.582 10.605-4.395l46.52-46.523H407c57.898 0 105-47.102 105-105V105.5c0-57.898-47.102-105-105-105zm75 265.68c0 41.355-33.645 75-75 75H186.52a15.003 15.003 0 00-10.606 4.394l-40.309 40.309-42.93-42.93a14.983 14.983 0 00-6.984-3.95C52.902 330.844 30 301.513 30 267.673V105.5c0-41.355 33.645-75 75-75h302c41.355 0 75 33.645 75 75zm0 0"/><path d="M351.242 144.328H160.758c-8.285 0-15 6.719-15 15 0 8.285 6.715 15 15 15h190.484c8.285 0 15-6.715 15-15 0-8.281-6.715-15-15-15zm0 0M351.242 197.352H160.758c-8.285 0-15 6.714-15 15 0 8.285 6.715 15 15 15h190.484c8.285 0 15-6.715 15-15 0-8.286-6.715-15-15-15zm0 0"/></svg>
